svgs/quillpad.svg

<svg xmlns="http://www.w3.org/2000/svg" viewBox="0 0 192 192"><path fill="none" stroke="#000" stroke-linecap="round" stroke-linejoin="round" stroke-width="8" d="M130.213 150.712c-10.165 5.53-21.821 8.672-34.213 8.672-39.535 0-71.585-31.986-71.585-71.442C24.415 48.485 56.465 16.5 96 16.5s71.585 31.986 71.585 71.442c0 16.792-5.805 32.231-15.521 44.427"/><path fill="none" stroke="#000" stroke-linecap="round" stroke-linejoin="round" stroke-width="8" d="M113.434 129.663A45.224 45.224 0 0 1 96 133.134c-25.008 0-45.281-20.233-45.281-45.192 0-24.958 20.273-45.191 45.281-45.191s45.281 20.233 45.281 45.191a44.917 44.917 0 0 1-6.993 24.138M96 85.45c7.491 7.642 34.275 37.299 60.597 74.599"/><path fill="none" stroke="#000" stroke-linecap="round" stroke-linejoin="round" stroke-width="6" d="M107.072 97.486c46.198 15.192 57.683 57.08 57.683 78.014-10.655-13.624-59.43-24.11-57.683-78.014Zm16.563 34.734c-2.248 2.824-2.765 6.354-2.007 9.906m22.567-14.06c2.663 0 4.734.56 6.029 1.443m-22.427-18.639c1.491-.144 2.753-.124 4.956 0m-21.853 3.406c-.666.374-2.124 2.215-2.124 2.215m46.198 27.442c1.54.249 3.72 1.713 3.72 1.713m-22.379 3.391c-.541 2.617.824 7.09.824 7.09m11.19 2.537c-.389 1.662.132 4.908.132 4.908"/></svg>

<svg
    xmlns="http://www.w3.org/2000/svg"
    viewBox="0 0 192 192"
    id="vector">
    <path
        id="path"
        d="M 130.213 150.712 C 120.048 156.242 108.392 159.384 96 159.384 C 56.465 159.384 24.415 127.398 24.415 87.942 C 24.415 48.485 56.465 16.5 96 16.5 C 135.535 16.5 167.585 48.486 167.585 87.942 C 167.585 104.734 161.78 120.173 152.064 132.369"
        fill="none"
        stroke="#000000"
        stroke-width="8"
        stroke-linecap="round"
        stroke-linejoin="round"/>
    <path
        id="path_1"
        d="M 113.434 129.663 C 108.068 131.899 102.178 133.134 96 133.134 C 70.992 133.134 50.719 112.901 50.719 87.942 C 50.719 62.984 70.992 42.751 96 42.751 C 121.008 42.751 141.281 62.984 141.281 87.942 C 141.281 96.818 138.717 105.097 134.288 112.08 M 96 85.45 C 103.491 93.092 130.275 122.749 156.597 160.049"
        fill="none"
        stroke="#000000"
        stroke-width="8"
        stroke-linecap="round"
        stroke-linejoin="round"/>
    <path
        id="path_2"
        d="M 107.072 97.486 C 153.27 112.678 164.755 154.566 164.755 175.5 C 154.1 161.876 105.325 151.39 107.072 97.486 Z M 123.635 132.22 C 121.387 135.044 120.87 138.574 121.628 142.126 M 144.195 128.066 C 146.858 128.066 148.929 128.626 150.224 129.509 M 127.797 110.87 C 129.288 110.726 130.55 110.746 132.753 110.87 M 110.9 114.276 C 110.234 114.65 108.776 116.491 108.776 116.491 M 154.974 143.933 C 156.514 144.182 158.694 145.646 158.694 145.646 M 136.315 149.037 C 135.774 151.654 137.139 156.127 137.139 156.127 M 148.329 158.664 C 147.94 160.326 148.461 163.572 148.461 163.572"
        fill="none"
        stroke="#000000"
        stroke-width="6"
        stroke-linecap="round"
        stroke-linejoin="round"/>
</svg>
